X: 36119
T: Schottishe Kerlou
R: reel
M: 4/4
K: Gmajor
g4 f4|ABc2 BA (3GAB|c2 cc Bd A2|z2 AG ABGF|
E2zE EDDE|GDGA B2GB|cBAG A2AG|G4 GABd|
g4 f4|ABc2 BA (3GAB|c2 cc Bd A2|z2 AG ABGF|
E2zE EDDE|GDGA B2GB|cBAG A2AG|G4G4|
e4 edcB|AGGA B2 (3GAB|cBAG d3 B|A4 ABGF|
E2z E EDDE|GDGA BDGB|cBAG A2AG|G4 GABd|
e2 ed efgf|e2 d2 B3 A|cBAG d3 e|A4 ABGF|
E2z E EDDE|GDGA B2 (3DGB|cBAG A2AG|G4G4|

